epam-assets/icon-sources/18/editor-risk.svg

<svg width="18" height="18" viewBox="0 0 18 18" fill="none" xmlns="http://www.w3.org/2000/svg">
<g id="18/editor-risk">
<path id="icon" fill-rule="evenodd" clip-rule="evenodd" d="M6.75 5.25H9.75C10.5784 5.25 11.25 5.92157 11.25 6.75V8.25C11.25 8.88 10.875 9.4125 10.32 9.6375L11.25 12.75H9.75L8.85 9.75H8.25V12.75H6.75V5.25ZM8.25 6.75V8.25H9.75V6.75H8.25ZM3.75 2.25H14.25C15.0784 2.25 15.75 2.92157 15.75 3.75V14.25C15.75 15.0784 15.0784 15.75 14.25 15.75H3.75C2.92157 15.75 2.25 15.0784 2.25 14.25V3.75C2.25 2.92157 2.92157 2.25 3.75 2.25ZM3.75 3.75V14.25H14.25V3.75H3.75Z" fill="#6C6F80"/>
</g>
</svg>

<svg xmlns="http://www.w3.org/2000/svg" width="18" height="18" fill="none" viewBox="0 0 18 18">
  <path fill="#6C6F80" fill-rule="evenodd" d="M6.75 5.25h3a1.5 1.5 0 0 1 1.5 1.5v1.5c0 .63-.375 1.162-.93 1.387l.93 3.113h-1.5l-.9-3h-.6v3h-1.5v-7.5Zm1.5 1.5v1.5h1.5v-1.5h-1.5Zm-4.5-4.5h10.5a1.5 1.5 0 0 1 1.5 1.5v10.5a1.5 1.5 0 0 1-1.5 1.5H3.75a1.5 1.5 0 0 1-1.5-1.5V3.75a1.5 1.5 0 0 1 1.5-1.5Zm0 1.5v10.5h10.5V3.75H3.75Z" clip-rule="evenodd"/>
</svg>
